dist/img/common/logo.svg

<svg width="176" height="95" viewBox="0 0 176 95" fill="none" xmlns="http://www.w3.org/2000/svg">
<path d="M122.147 39.7014L108.113 39.7014L108.113 45.304L122.147 45.304L122.147 39.7014Z" fill="#00817C"/>
<path d="M68.3622 39.7014L54.328 39.7014L54.328 45.304L68.3622 45.304L68.3622 39.7014Z" fill="#00817C"/>
<path d="M45.7023 7.99084e-06C20.4669 3.57854e-06 -3.57819e-06 20.4649 -7.99326e-06 45.7161L-1.64472e-05 94.0672L130.282 94.0672C155.533 94.0672 176 73.6023 176 48.3491L176 0.00993392L45.7023 7.99084e-06ZM46.6591 39.7015L28.9619 39.7015L28.9619 58.2308L25.2988 58.2308L25.2988 36.0424L46.6591 36.0424L46.6591 39.7015ZM72.0273 48.9672L56.749 48.9672C56.2917 48.9671 55.8396 48.8703 55.4224 48.6832C55.0052 48.4961 54.6322 48.2229 54.328 47.8815L54.328 54.5697L72.0273 54.5697L72.0273 58.2308L50.6669 58.2308L50.6669 36.0424L72.0273 36.0424L72.0273 48.9672ZM99.0556 58.2308L95.3945 58.2308L95.3945 48.9672L81.3583 48.9672L81.3583 58.2308L77.6972 58.2308L77.6972 36.0424L81.3583 36.0424L81.3583 45.3081L95.3945 45.3081L95.3945 36.0424L99.0556 36.0424L99.0556 58.2308ZM125.801 48.9652L110.532 48.9652C110.075 48.9652 109.624 48.8687 109.207 48.6819C108.79 48.4952 108.417 48.2224 108.113 47.8815L108.113 54.5678L125.809 54.5678L125.809 58.2308L104.45 58.2308L104.45 36.0424L125.809 36.0424L125.801 48.9652ZM150.899 42.8812C150.898 43.4623 150.739 44.0322 150.441 44.5311C150.143 45.0299 149.716 45.4393 149.205 45.7162C149.716 45.993 150.143 46.4024 150.441 46.9012C150.739 47.4001 150.898 47.97 150.899 48.5511L150.899 58.2308L129.547 58.2308L129.547 54.5698L147.244 54.5698L147.244 48.9672L129.547 48.9672L129.547 45.3041L147.244 45.3041L147.244 39.7015L129.547 39.7015L129.547 36.0424L150.907 36.0424L150.899 42.8812Z" fill="#00817C"/>
</svg>

<svg width="176" height="95" viewBox="0 0 176 95" fill="none" xmlns="http://www.w3.org/2000/svg"><path d="M122.147 39.701h-14.034v5.603h14.034v-5.603zm-53.785 0H54.328v5.603h14.034v-5.603z" fill="#00817C"/><path d="M45.702 0C20.467 0 0 20.465 0 45.716v48.351h130.282C155.533 94.067 176 73.602 176 48.35V.01L45.702 0zm.957 39.702H28.962V58.23h-3.663V36.042h21.36v3.66zm25.368 9.265H56.75a3.244 3.244 0 01-2.421-1.085v6.688h17.7v3.66H50.666V36.043h21.36v12.925zm27.029 9.264h-3.662v-9.264H81.358v9.264h-3.66V36.042h3.66v9.266h14.036v-9.266h3.662v22.189zm26.745-9.266h-15.269a3.24 3.24 0 01-2.419-1.084v6.687h17.696v3.663H104.45V36.042h21.359l-.008 12.923zm25.098-6.084a3.23 3.23 0 01-1.694 2.835 3.234 3.234 0 011.694 2.835v9.68h-21.352V54.57h17.697v-5.603h-17.697v-3.663h17.697v-5.602h-17.697v-3.66h21.36l-.008 6.84z" fill="#00817C"/></svg>
